!!!SOCIAL_FUNCTION:	songs of war
!!!PDT:	1918

Specific Region: Dakotas, Minnesota, Montana, Nebraska
!!!REG: Dakotas and Montana
!!!LING_GROUP: Siouan
!!!LANG: Tone
!!!OTL@ENG: Watch Your Horses
!!!ONM: No. 127
**kern
*Imale
*clefF4
*k[b-e-a-d-]
*M2/4
*>[A,A]
*>norep[A]
*>A
=!|:
*MM92
8F
=1
4f
4f
=2||
*M3/4
4.f
8c
4c
=3||
*M2/4
4c
4c
=4||
*M3/4
8.f
16c
8c
8c
8.B-
16B-
=5||
*M2/4
4A-
4F
=6
4B-
4B-
=7
8.d-
16B-
8B-
8B-
=8
4A-
4F
=9
8.B-
16B-
12A-
12F
12F
=10||
*M3/4
4A-
8F
8A-
8.F
16F
=11||
*M2/4
4.F
8F
=12||
*M3/4
2.F
=13
8c
8c
8c
8c
8.c
16c
=14
8f
(16f
16c)
8c
8c
8.B-
16B-
=15||
*M2/4
4A-
4F
=16||
*M3/4
8.B-
16B-
8B-
8B-
8B-
8B-
=17||
*M2/4
8d-
(16d-
16B-)
8B-
8B-
=18
4A-
4F
=19
8.B-
16B-
12A-
12F
12F
=20||
*M3/4
4A-
8F
8A-
8.F
16F
=21||
*M2/4
2F
=22
4F
8r
==:|!
*-
!!!CNT: Native American -- Sioux
!!!MRD: 1911/07//-1914///
!!!OCL: Frances Densmore
!!!YOR1: Teton Sioux Music, Bulletin 61,
!!!YOR2: Bureau of American Ethnology, Smithsonian Institution
!!!PPR: Government Printing Office
!!!PPP: Washington, D.C.
!!!PDT: 1918///
!!!ENC: Craig Stuart Sapp
!!!END: 2002/03/25/
!!!EEV: 2002/03/31/
!!!AGN: War Song/Song of a Typical War Expedition
!!!MPN@@SIO: Waha'chungka-nong'pa
!!!MPN@ENG: Two Shields
!!!TXO: Teton Sioux
!!!MLC: Standing Rock Reservation, South Dakota, United States of America
!!!ARL: 45.9/-100.7#
!!!catalog: Catalogue No. 532
!!!PPG: 337
!!!EFL: 128/245
!!!VTS: 366702666
